X: 41
T: WALTZES: Petranu-Valse Set
T: Petranu-Valse
C: C: Oliushka Tikhaia / Calum Stewart; S: ThZCh / Various
C: Set Leaders: Oliushka, Anton, Sophie
Z: Oliushka Tikhaia ed., Anton Zille ed.; Bregolas at The Session
N: https://thesession.org/members/26966/sets/95961
R: Waltz
M: 3/4
L: 1/8
Q: 1/4=144
K: Gmaj
D GA|:B2 BA B/c/d|A4 BA|G2 FG E2|D4 GA|
BA B B2 d|A3 g fg|eG ef e2|d3 c BA|
B2 BA B/c/d|A4 BA|G2 F G2 E|DC D2 GA|
BA B B2 d|A6|CD EG F2|1 G3 D GA:|2 G3 F ED||
C3 D EG|FE F2 D2|B3 A GF|GF EF DE|
C3 D EG|FE F2 D2|G3 A B2|d2 g2 fg|
eG ef ef|dF de de|cB cE cd|B3 A GA|
B2 BA B/c/d|A6|CD EG F2|G3 F ED|
C3 D EG|FE F2 D2|B3 D GA|cB AG FG|
C3 D EG|FE F2 D2|G3 A B2|d2 g2 fg|
ed eG ef|dc dF de|c_E cd c2|B3 A GA|
B2 BA B/c/d|A6|CD EG F2|G6||
T: Looking at a Rainbow / Looking at a Rainbow Through a Dirty Window
R: Waltz
K: Gmaj
D GA|:Bd AB GA|F2 FG FD|E6-|E3 DGA|
Bd AB GA|F2 FG FD|G6-|1 G3 DGA:|2 GA Bd gf||
|:e2 B2 gf|e2 c2 gf|ed ef ga|b2 ba gf|
e2 B2 gf|e2 c2 gf|ed ef ga|1 g4 gf:|2 g3||

